public/assets/img/favicon.svg

<svg xmlns="http://www.w3.org/2000/svg" viewBox="0 0 1200 1200" width="300" height="300"><defs><linearGradient id="gradient-default"><stop offset="0" stop-color="#b565a7"/><stop offset="1" stop-color="#5f4b8b"/></linearGradient><linearGradient id="gradient-alt"><stop offset="0" stop-color="#4a9a58"/><stop offset="1" stop-color="#a0b474"/></linearGradient></defs><style>.frame{fill:#fff;stroke:url(#gradient-default);stroke-linecap:round;stroke-linejoin:round;stroke-width:200}.letters{fill:#2e3440}@media (prefers-color-scheme:dark){.frame{fill:#2e3440;stroke:url(#gradient-alt)}.letters{fill:#fff}}</style><path class="frame" d="M50 0h1100c27.65 0 50 22.35 50 50v1100c0 27.65-22.35 50-50 50H50c-27.65 0-50-22.35-50-50V50C0 22.35 22.35 0 50 0z"/><path class="letters" d="M357.98 870q-7.7 0-12.32-4.62-4.62-5.39-4.62-13.09V348.71q0-7.7 4.62-12.32 4.62-5.39 12.32-5.39h38.5q8.47 0 13.09 4.62 4.62 4.62 4.62 13.09v503.58q0 7.7-5.39 13.09-4.62 4.62-12.32 4.62h-38.5zm-20.31 0q-7.7 0-12.32-4.62-4.62-5.39-4.62-13.09V348.71q0-7.7 4.62-12.32 4.62-5.39 12.32-5.39h38.5q8.47 0 13.09 4.62 4.62 4.62 4.62 13.09v503.58q0 7.7-5.39 13.09-4.62 4.62-12.32 4.62h-38.5zm368.35 0q-7.7 0-13.09-4.62-4.62-5.39-4.62-13.09V397.22H539.7q-7.7 0-13.09-4.62-4.62-5.39-4.62-13.09v-30.03q0-8.47 4.62-13.09Q532 331 539.7 331h369.6q8.47 0 13.09 5.39 4.62 4.62 4.62 13.09v30.03q0 7.7-5.39 13.09-4.62 4.62-12.32 4.62H761.46v455.07q0 7.7-5.39 13.09-5.39 4.62-13.09 4.62h-36.96zm-20.31 0q-7.7 0-13.09-4.62-4.62-5.39-4.62-13.09V397.22H519.39q-7.7 0-13.09-4.62-4.62-5.39-4.62-13.09v-30.03q0-8.47 4.62-13.09 5.39-5.39 13.09-5.39h369.6q8.47 0 13.09 5.39 4.62 4.62 4.62 13.09v30.03q0 7.7-5.39 13.09-4.62 4.62-12.32 4.62H741.15v455.07q0 7.7-5.39 13.09-5.39 4.62-13.09 4.62h-36.96z"/></svg>

<svg xmlns="http://www.w3.org/2000/svg" viewBox="0 0 1200 1200" width="300" height="300">
  <defs>
    <linearGradient id="gradient-default">
      <stop offset="0" stop-color="#b565a7" />
      <stop offset="1" stop-color="#5f4b8b" />
    </linearGradient>
    <linearGradient id="gradient-alt">
      <stop offset="0" stop-color="#4a9a58" />
      <stop offset="1" stop-color="#a0b474" />
    </linearGradient>
  </defs>
  <style>
    .frame {
      fill: #ffffff;
      stroke: url(#gradient-default);
      stroke-linecap: round;
      stroke-linejoin: round;
      stroke-width: 200;
    }

    .letters {
      fill: #2e3440;
    }

    @media (prefers-color-scheme: dark) {
      .frame {
        fill: #2e3440;
        stroke: url(#gradient-alt);
      }

      .letters {
        fill: #ffffff;
      }
    }
  </style>
  <path
    class="frame"
    d="M50 0L1150 0C1177.65 0 1200 22.35 1200 50L1200 1150C1200 1177.65 1177.65 1200 1150 1200L50 1200C22.35 1200 0 1177.65 0 1150L0 50C0 22.35 22.35 0 50 0Z"
  />
  <path
    class="letters"
    d="M357.98 870Q350.28 870 345.66 865.38Q341.04 859.99 341.04 852.29L341.04 348.71Q341.04 341.01 345.66 336.39Q350.28 331 357.98 331L396.48 331Q404.95 331 409.57 335.62Q414.19 340.24 414.19 348.71L414.19 852.29Q414.19 859.99 408.8 865.38Q404.18 870 396.48 870L357.98 870ZM337.67 870Q329.97 870 325.35 865.38Q320.73 859.99 320.73 852.29L320.73 348.71Q320.73 341.01 325.35 336.39Q329.97 331 337.67 331L376.17 331Q384.64 331 389.26 335.62Q393.88 340.24 393.88 348.71L393.88 852.29Q393.88 859.99 388.49 865.38Q383.87 870 376.17 870L337.67 870ZM706.02 870Q698.32 870 692.93 865.38Q688.31 859.99 688.31 852.29L688.31 397.22L539.7 397.22Q532 397.22 526.61 392.6Q521.99 387.21 521.99 379.51L521.99 349.48Q521.99 341.01 526.61 336.39Q532 331 539.7 331L909.3 331Q917.77 331 922.39 336.39Q927.01 341.01 927.01 349.48L927.01 379.51Q927.01 387.21 921.62 392.6Q917 397.22 909.3 397.22L761.46 397.22L761.46 852.29Q761.46 859.99 756.07 865.38Q750.68 870 742.98 870L706.02 870ZM685.71 870Q678.01 870 672.62 865.38Q668 859.99 668 852.29L668 397.22L519.39 397.22Q511.69 397.22 506.3 392.6Q501.68 387.21 501.68 379.51L501.68 349.48Q501.68 341.01 506.3 336.39Q511.69 331 519.39 331L888.99 331Q897.46 331 902.08 336.39Q906.7 341.01 906.7 349.48L906.7 379.51Q906.7 387.21 901.31 392.6Q896.69 397.22 888.99 397.22L741.15 397.22L741.15 852.29Q741.15 859.99 735.76 865.38Q730.37 870 722.67 870L685.71 870Z"
  />
</svg>
